cps (220/60/4)

cps 1
d1 $ n (run 8)
  # sound "lighter*8"
  # pan "0.7"
d1 $ sound "birds:1/4"
  # speed "-0.1"
d1 $ sound "[casio:5*4, [bd:4*8,  armora:5*1]]"
d1 $ slow 1.0 $ sound "[bd:5*3]"
  # gain "1.0. 1.5 1.0 0.7"
  # speed "0.5 0.5 0.5"
d1 silence
d2 $ sound "[sn bd:8] sn"
 # speed "0.9"
d2 silence
d3 $ sound "[bass1*6]"
  # gain "0.8"
  # speed "1.0"
d3 silence
d4 $ sound "armora:1/2"
d4 silence
d5 $ sound "[kurt:5/2]"
d5 silence
d6 $ sound "toys:1/2"
d6 silence
d7 $ sound "[numbers:9]"
  # pan "0.5"
d7 $ sound "alphabet:13 alphabet:5 alphabet:5 alphabet:4"
    # pan "0.5"
d7 silence
d7 $ sound "[fire*8]"
  # pan "1.0"
d8 $ slow 1.0 $ n (run 8)
 # sound "bd*8"
 # gain "0.5"
 # speed "-0.4"
d8 silence
d9 $ sound "bass1*2"
  # gain "1.5"
  # speed "0.8"
  # pan "0"
d9 $ sound "[hoover*8, bass1*2]"
 # speed "0.4"
 # gain "0.6"
d9 silence
hush
